X: 37505
T: Sligo, The
R: reel
M: 4/4
K: Dmajor
|DFAd ~f3e|dcde {g}fdAF|~G2FG EDEF|GABG EFGE|
FADA FAdc|BG~G2 Bcde|~f2af {a}gecd|eddc d4:|
Jf2{g}fe dfaf|{b}gfed cdeg|fa~a2 gfed|cABG A2{B}AG|
FADA FAdc|BG~G2 Bcde|~f2af {a}gecd|eddc d4:|

